X:1
T:Bel desio che mi tormenti
T:Barbara Strozzi
T:Source : Ariette a voce sola---Venetia---F.Magni---1657. Editor : André Vierendeels (19/05/16).
T:Notes : Original clefs : C1, F4 Editorial accidentals above the staff Original note values have been halved Dotted brackets indicate black notes From m1 to m19 : music notated in black notes In BC : m28, m41, m44, music notated in C3 clef  
T:Bel desio che mi tormenti
T:©
T:©
T:©
T:©
T:©
T:©
C:Barbara Strozzi
Z:©
%%score 1 2
L:1/8
Q:1/4=80
M:6/8
K:C
V:1 treble nm="Soprano" snm="S"
V:2 bass nm="BC" snm="BC"
V:1
 z EA ^G B2 | c A2 d B2 | e g2 f e2 | c d2 e B2 | e e2 e d2 | d c2 c _B2 | _B ^G2 A B2 | %7
w: Bel de- sio che|mi tor- men- ti|con an- gel- li|che sem- bian- ze|nel pro- dur- mi'al-|te spe- ran- ze|tu dis- per- d'i|
w: La bel- tà so-|mi- gli- a un|fio- * * re|che pur hor spun-|to da l'her- be|che dis- per- de,|che dis- per- de|
 c d2 ed/c/B | cB/A/^G A B2 | cd/c/B c B2 | AEA ^G B2 | c A2 d B2 | e g2 f B2 | ^G E2 A3- | %14
w: miei con- ten- * * *|||ti, bel de- sio che|mi tor- men- ti,|bel de- sio che|mi tor- men-|
w: poc- co ge- * * *|* * * * * lo'e|lie- * * * ve'ar- do-|re, la bel- tà so-|mi- gli- a un|fio- * re che|pur hor spun-|
 A2 B c ^G2 | A3- A2 A | B ^F2 ^G3- | G3- G2 A | A2 ^G A3 ::[M:6/4] z2 e2 d2 e2 B4 | %20
w: ||||* ti, _|che piu chie- di|
w: * to da l'her-||||* be, _|che dis- per- de|
 c2 c2 G2 A2 G4 | AG AB cd e3 d cB | A2 B2 c2 c2 B4 | z2 E2 ^F2 GF GA Bc | d2 B2 ed c2 c2 A2 | %25
w: che, che piu chie- di'al|ciel _ _ _ _ _ _ _ _ _|_ cor- * te- se|se- gua lie- * * * * *|* to ho- * * re be-|
w: poc- co ge- lo'e lie-|ve'ar- * * * * * * * * *|* * * do- re:|non vo- gl'io _ _ _ _ _|_ che sof- * * fra il|
 d4 d2 z2 B2 d2 | G4 G2 z2 e2 g2 | c4 c2 z2 c2 e2 | A2 A2 G2 A2 d2 A2 | B2 e4 c2 f2 c2 | %30
w: a- te? La bel-|ta- te sem- pre'uc-|ci- se, sem- pre|uc- si- * * * *||
w: co- re, bre- ve|gio- a e pian-|* to e pian-|to e- ter- * * *||
 d2 g4 e4 g2 | c2 eg fe e2 d4 | c12 :: z2 e2 c2 d2 G4 | c2 A2 d2 B2 GA Bc | A2 ^F2 B2 G2 EF GA | %36
w: so un cor, un|cor ch'ac- * * * ce- *|se.|Sol chi bra- ma|i- r'è con- te- * * * *||
w: * * no ben|dis- * * * * cer- *|no,|tut- * t'il mal|che per me ten- * * * *||
 ^F2 D4 z2 D2 D2 | E2 D4 E2 ^F4 | G2 A4 B2 ^c4 | d4 d2 z2 d2 e2 | c4 B4 A3 G | ^F2 B3 A G2 c4 | %42
w: * se se- gua|lie- to'il nu- me'in-|fi- do di Cu-|pi- do men- tr'hà|cor che non pa-|ven- * * * *|
w: * ti, non vo-|gl'io che sof- *|* fra il co-|* re bre- ve|gio- ia e _|_ pian- * * *|
 A2 d3 c B4 d2 | e3 d cB B2 A4 | G2 G2 G2 A2 G4 | A2 B4 c2 d4 | e2 ^f4 g4 g2 | z2 g2 a2 f4 e2- | %48
w: ||ti, se- gua lie- to'il|nu- me'in- fi- do|di Cu- pi- do,|men- tr'ha cor che|
w: to'e- ter- * * *||no, bre- ve gio- ia|e pian- * *|to e- ter- no,|ben dis- cer- no|
 e2 d3 c B2 e3 d | d2 f4 d2 g3 f | e4 g2 a3 g fe | e2 d4 c6 :|[M:6/8] z EA ^G B2 | c A2 d B2 | %54
w: _ non pa- ven- * *|||* * ti.|Bel de- sio che|mi tor- men- ti|
w: _ tut- t'il mal che per|me ten- * * *||* * ti.|||
"^UT SUPRA" z6 | A2 ^G A3 |] %56
w: |(men)- ti. _|
w: ||
V:2
 A,,3 E,3 | A,3 G,3 |"^-natural" E,3 D,2 E, | F,3 E,3 | E,2 ^F, ^G,3 | A,3 D,3 | E,3 F,2 E, | %7
 D,3 C, ^G,,2 | A,, E,2 F,2 E, | D,3 E,3 | A,,3 E,3 | A,3 G,3 | E,3 D,3- | D,3 D,C,D, | %14
 E,3- E,2 E, | F, ^C,2 D,3- | D,3- D,2 D, | ^D, ^C,2 D,3 | E,3 A,,3 ::[M:6/4] z2 C2 B,2 C2 G,4 | %20
 A,2 A,2 E,2 F,4 E,2 | F,4 E,D, C,A,, B,,C, D,E, | F,4 E,2 F,2 G,4 | C,6 B,,4 A,,2 | %24
 G,,6 G,,4 ^F,2 | G,2 B,,2 D,2 G,,6 | z2 E,2 G,2 C,6 | z2 C2 E2 A,4 G,2 | F,4 E,2 F,6 | %29
 G,6 A,2 D2 A,2 | B,6 C4 E,2 | F,6 G,6 | C,12 :: C6 B,6 | z2 A,2 ^F,2 G,2 E,4 | %35
 ^F,2 D,2 G,2 E,2 ^C,4 | D,4 C,2 B,,6 | C,4 B,,2 C,4 D,2 | E,4 ^F,2 G,4 E,2 | D,2 D2 C2 B,6 | %40
 C2 D4 E2 C4 | D2 D,4 E,6 | ^F,6 G,4 A,2 | C3 D EC D6 | G,2 E,4 F,4 E,2 | F,4 G,2 A,4 B,2 | %46
 C4 A,2 G,2 G,2 F,2 | E,6 F,2 G,4 | A,2 F,4 G,6 | A,6 B,6 | C4 E,2 F,3 G, A,F, | G,6 C,6 :| %52
[M:6/8] A,,3 E,3 | z6 | z6 | E,3 A,,3 |] %56

